!!!!SEGMENT: pl-sa--398-a-viii--004_luna-georgius--missa-solemnis-sanctus.krn
!!!cenid: 17xx:476
!!!COM: Luna, Georgius
!!!COM-rismID: pe41010079
!!!CDT:
!!!CNT:
!!!OPR: Missa Solemnis
!!!OTL: Sanctus
!!!OMV: 004
!!!PDT:
!!!AGN: Sacred; Mass
!!!SMS-siglum: PL-SA
!!!SMS-shelfmark: 398/A VIII
!!!SMS-shelfwork: 001-004 M
!!!SMS-variant:
!!!SMS-altvar:
!!!NIFC-rismSourceID: 1001070172
!!!NIFC-islandoraID:
!!!URL-pdf-islandora:
!!!URL-scan: https://bc.bdsandomierz.pl/dlibra/publication/1511/edition/1479/content @EN{Scan on Cyfrowa Biblioteka Diecezjalna w Sandomierzu} @PL{Skany w portalu Cyfrowa Biblioteka Diecezjalna w Sandomierzu}
!!!ONB-nifc: UWAGA: części Mszy: Kyrie, Gloria, Credo, Sanctus, Benedictus, Agnus
!!!AIN: 1 alto 3 empty 1 organ 1 tenor 2 violn 1 vox
!!!key:
**kern	**fba	**kern	**kern	**kern	**text	**kern	**text	**kern	**text	**kern	**text	**kern	**kern
*part9	*	*part8	*part7	*part6	*part6	*part5	*part5	*part4	*part4	*part3	*part3	*part2	*part1
*	*	*group3	*group3	*group2	*	*group2	*	*group2	*	*group2	*	*group1	*group1
*staff9	*	*staff8	*staff7	*staff6	*staff6	*staff5	*staff5	*staff4	*staff4	*staff3	*staff3	*staff2	*staff1
*Iorgan	*	*Ivioln	*Ivioln	*Iempty	*	*Itenor	*	*Ialto	*	*Ivox	*	*Iempty	*Iempty
*I"Organo.	*	*I"Violino Secondo.	*I"Violino Primo.	*I"Baſso.	*	*I"Tenore.	*	*I"Alto.	*	*I"Canto.	*	*I"Clarino 2do. Ex.D.	*I"Clarino 1mo.
*I'org	*	*I'vl II	*I'vl I	*I'B	*	*I'T	*	*I'A	*	*I'C	*	*I'clno II	*I'clno I
*clefF4	*	*clefG2	*clefG2	*clefF4	*	*clefC4	*	*clefC3	*	*clefC1	*	*clefG2	*clefG2
*	*	*	*	*	*	*	*	*	*	*	*	*ITrd-1c-2	*ITrd6c10
*k[f#c#]	*	*k[f#c#]	*k[f#c#]	*k[f#c#]	*	*k[f#c#]	*	*k[f#c#]	*	*k[f#c#]	*	*k[f#c#]	*k[f#c#]
*D:	*	*D:	*D:	*D:	*	*D:	*	*D:	*	*D:	*	*D:	*D:
*M4/4	*	*M4/4	*M4/4	*M4/4	*	*M4/4	*	*M4/4	*	*M4/4	*	*M4/4	*M4/4
*met(c)	*	*met(c)	*met(c)	*met(c)	*	*met(c)	*	*met(c)	*	*met(c)	*	*met(c)	*met(c)
=1	=1	=1	=1	=1	=1	=1	=1	=1	=1	=1	=1	=1	=1
*2\right	*	*2\right	*2\right	*2\right	*	*2\right	*	*2\right	*	*2\right	*	*2\right	*2\right
!LO:TX:b:t=Sanctus.	!	!LO:TX:b:t=Sanctus	!LO:TX:b:t=Sanctus	!	!	!LO:TX:a:t=P:problem=krzyżyki c# F#	!	!	!	!LO:TX:a:t=P:problem=krzyżyki f# cc# jeden nad drugim	!	!LO:TX:b:i:t=Sanctus	!LO:TX:b:i:t=Sanctus
!LO:TX:a:t=Adagio	!	!LO:TX:a:t=Adagio	!	!LO:TX:a:t=adagio	!	!LO:TX:a:t=Adagio	!	!LO:TX:a:t=Ad	!	!LO:TX:a:t=Ada	!	!LO:TX:a:i:t=Adagio	!LO:TX:a:i:t=Adagio
2D\	.	2a\	2ff#\	2D\	San-	2d\	San-	2a\	San-	2ff#\	San-	2dd\	2f#\
2A\	.	2cc#\	2ee\	2A\	-ctus	2c#\	-ctus	2a\	-ctus	2ee\	-ct(us)	2a/	2e\
=2	=2	=2	=2	=2	=2	=2	=2	=2	=2	=2	=2	=2	=2
*	*	*	*	*	*	*	*	*	*ij	*	*ij	*	*
2cn\	.	2a\	2ff#\	2cn\	San-	2d\	San-	2a\	San-	2ff#\	San-	2dd\	2d\
2B\	.	2dd\	2gg\	2B\	-ctus	2d\	-ctus	2b\	-ctus	2gg\	-ct(us)	2dd\	2d\
*	*	*	*	*	*	*	*	*	*Xij	*	*	*	*
=3	=3	=3	=3	=3	=3	=3	=3	=3	=3	=3	=3	=3	=3
*	*	*	*	*	*ij	*	*ij	*	*	*	*	*	*
2B-X\	6\_	2dd\	2gg#X\	2B-X\	San-	2d\	San-	2dd\	San-	2gg#X\	San-	2dd\	2d\
2A\	.	2cc#\	2aa\	2A\	-ctus	2e\	-ctus	2cc#\	-ctuſ	2aa\	-ct(us)	2rg	2r
.	X	.	.	.	.	.	.	.	.	.	.	.	.
*	*	*	*	*	*Xij	*	*Xij	*	*	*	*Xij	*	*
=4	=4	=4	=4	=4	=4	=4	=4	=4	=4	=4	=4	=4	=4
!	!	!	!	!	!	!	!	!	!	!	!	!	!LO:TX:a:t=2
4.G#X\	-n7	2dd\	2bb\	4.G#X\	Do-	4.d\	Do-	4.b\	D(o-	4.ffn\	D(o-	0r	0r
8G#\	.	.	.	8G#\	-mi-	8d\	-mi-	8b\	-mi)-	8ff\	-mi)-	.	.
2G#\	.	2b\	2dd\	2G#\	-nus	2d\	-nus	2b\	-nuſ	2ff\	-nus	.	.
=5	=5	=5	=5	=5	=5	=5	=5	=5	=5	=5	=5	=5	=5
2Gn\	4 2	2a/	2cc#\	2Gn\	De-	2c#\	De-	2a\	De-	2ee\	De-	.	.
2F#\	6	2a/	2dd\	2F#\	-us	2d\	-us	2a\	-uſ	2dd\	-(us)	.	.
=6	=6	=6	=6	=6	=6	=6	=6	=6	=6	=6	=6	=6	=6
4.Fn\	6	4.a/	4.dd\	4.Fn\	Sa-	4.d\	Do-	4.a\	Do-	4.dd\	Do-	2rg	2r
8F\	.	8a/	8dd\	8F\	-ba-	8d\	-mi-	8a\	-mi-	8dd\	-(mi)-	.	.
!	!	!	!	!	!	!	!	!LO:LB:g=original	!	!	!	!	!
2GG#X/	-n7	2a/	2ffn\	2GG#X/	-oth	2fn\	-nus	2b\	-nuſ	2dd\	-n(us)	4r	4r
.	.	.	.	.	.	.	.	.	.	.	.	8r	8r
!	!	!	!	!	!	!	!	!	!	!	!	!	!LO:LB:g=original
.	.	.	.	.	.	.	.	.	.	.	.	8dd\	8d\
=7	=7	=7	=7	=7	=7	=7	=7	=7	=7	=7	=7	=7	=7
4AA/	.	4g/	4ee\	4AA/	De-	4e\	De-	(8a\L	De-	4cc#\	De-	4a/	4e\
.	.	.	.	.	.	.	.	8g\J)	.	.	.	.	.
4D\	.	4f#/	2dd\	4D/	-us	4A/	-us	4f#\	-uſ	4dd\	-(us)	4dd\	4f#\
4A\	.	2e/	.	4.A\	Sa-	4.A/	Sa-	4.e\	ſa-	4dd\	Sa-	2a/	2e\
4AA/	.	.	4cc#\	.	.	.	.	.	.	4cc#\	-ba-	.	.
.	.	.	.	8AA/	-ba-	8A\	-ba-	8e\	-ba-	.	.	.	.
!LO:LB:g=original	!	!LO:LB:g=original	!LO:LB:g=original	!LO:LB:g=original	!	!LO:LB:g=original	!	!	!	!LO:LB:g=original	!	!	!
=8	=8	=8	=8	=8	=8	=8	=8	=8	=8	=8	=8	=8	=8
!LO:TX:a:t=Allo	!	!LO:TX:a:t=Allo	!LO:TX:b:t=Allo	!	!	!LO:TX:a:t=allo	!	!	!	!	!	!LO:TX:a:t=All(egr)o	!LO:TX:a:t=All(egr)o
8D\L	.	8a/	8dd\	8D,/	-oth,	8A\	-oth	8f#\	-oth	8dd\	-oth	8f#/L	8d\L
!	!	!	!	!	!	!	!	!LO:TX:a:t=Allo	!	!LO:TX:a:t=allo	!	!	!
8D\	.	8ff#L 8a 8d/	8ff#L 8a 8d/	8D/	ple-	8A\	ple-	8f#\	Ple-	8dd\	Ple-	8dd\	8f#\
!	!	!	!	!LO:TX:b:t=allo	!	!	!	!	!	!	!	!	!
8D\	.	8ff# 8a 8d/	8ff# 8a 8d/	8D/	-ni	8A\	-ni	8f#\	-ni	8dd\	-ni	8dd\	8f#\
8D\J	.	8ff#J 8a 8d/	8ff#J 8a 8d/	8D/	ſ(u)nt	8A\	ſunt	8f#\	ſunt	8dd\	ſunt	8dd\J	8f#\J
!	!	!	!	!	!	!	!	!	!	!	!	!LO:LB:g=original	!
*	*	*Xtuplet	*Xtuplet	*	*	*	*	*	*	*	*	*	*
!	!	!LO:TUP:a:problem=klamra łukowa	!	!	!	!	!	!	!	!	!	!	!
8D\L	.	24dd\LL	24ff#\LL	4D/	Cae-	2A/	cae-	2f#\	Cae-	4.dd\	Cae-	8dd\L	8f#\L
.	.	24ee\	24gg\	.	.	.	.	.	.	.	.	.	.
.	.	24ff#\JJ	24aa\JJ	.	.	.	.	.	.	.	.	.	.
8D\	.	4ff#\	4aa\	.	.	.	.	.	.	.	.	16ff#\L	16a\L
.	.	.	.	.	.	.	.	.	.	.	.	16ee\JJ	16g\JJ
8F#\	.	.	.	(8F#\L	.	.	.	.	.	.	.	8dd\L	8f#\L
8D\J	.	8ff#\	8ddd\	8D\J)	.	.	.	.	.	16ee\LL	.	8ff#\J	8a\J
.	.	.	.	.	.	.	.	.	.	16ff#\JJ	.	.	.
=9	=9	=9	=9	=9	=9	=9	=9	=9	=9	=9	=9	=9	=9
8A\L	.	8ee\	8ccc#/L	8A\	-li	8c#\	-li	8a\	-li	8ee\	-li	8ee\L	8g\L
8A\	.	8eeL 8cc# 8a/	8ee 8cc# 8a/	8A\	Cae-	8c#\	cae-	8a\	Ple-	8ee\	Cae-	8a\	8e\
8A\	.	8ee 8cc# 8a/	8ee 8cc# 8a/	8A\	-li	8c#\	-li	8a\	-ni	8ee\	-li	8a\	8e\
8A\J	.	8eeJ 8cc# 8a/	8eeJ 8cc# 8a/	8A\	et	8c#\	et	8a\	ſunt	8ee\	et	8a\J	8e\J
!LO:TX:a:t=P:problem=mixed beam	!	!	!	!	!	!	!	!	!	!	!	!LO:TX:a:t=P:problem=mixed beam	!
8A\L	.	8ee 8cc# 8a/	8ee 8cc# 8a/	2A\	ter-	2c#\	ter-	2a\	Cae-	4.ee\	ter-	8a/L	8e\L
!	!	!LO:TUP:a:problem=klamra łukowa	!LO:TUP:a:problem=klamra łukowa	!	!	!	!	!	!	!	!	!	!
8A\	.	24a\LL	24cc#\LL	.	.	.	.	.	.	.	.	16ee\L	16g\L
.	.	24b\	24dd\	.	.	.	.	.	.	.	.	.	.
.	.	.	.	.	.	.	.	.	.	.	.	16dd\JJ	16f#\JJ
.	.	24cc#\JJ	24ee\JJ	.	.	.	.	.	.	.	.	.	.
!	!	!LO:TUP:a:problem=klamra łukowa	!LO:TUP:a:problem=klamra łukowa	!	!	!	!	!	!	!	!	!LO:TX:a:t=P:problem=mixed beam	!
8AA/	.	24cc#\LL	24ee\LL	.	.	.	.	.	.	.	.	8a/L	8e\L
.	.	24dd\	24ff#\	.	.	.	.	.	.	.	.	.	.
.	.	24ee\JJ	24gg\JJ	.	.	.	.	.	.	.	.	.	.
!	!	!	!LO:TUP:a:problem=klamra łukowa	!	!	!	!	!	!	!	!	!	!
.	.	8qqff#/	8qqaa/	.	.	.	.	.	.	.	.	.	.
!	!	!LO:N:vis=16.	!	!	!	!	!	!	!	!	!	!	!
8AA/J	.	16ee\LL	24gg\LL	.	.	.	.	.	.	8gg\	.	8ee\J	8g\J
.	.	.	24ff#\	.	.	.	.	.	.	.	.	.	.
.	.	32dd\L	.	.	.	.	.	.	.	.	.	.	.
.	.	.	24gg\JJ	.	.	.	.	.	.	.	.	.	.
.	.	32ee\JJJ	.	.	.	.	.	.	.	.	.	.	.
=10	=10	=10	=10	=10	=10	=10	=10	=10	=10	=10	=10	=10	=10
8D\L	.	8dd\L	8ff#\	4D\	-ra	4d\	-ra	4a\	-li	4ff#\	-ra	8dd\L	8f#\L
8D\	.	16ff#\L	16aa\LL	.	.	.	.	.	.	.	.	16ff#\L	16a\L
.	.	16dd\JJ	16ff#\JJ	.	.	.	.	.	.	.	.	16dd\JJ	16g\JJ
8D\	.	8a/L	8dd\L	8D\	glo-	8f#\	glo-	8a\	glo-	8dd\	glo-	8dd\L	8f#\L
8D\J	.	8f#/J	8a\J	16D\	-ri-	16d\	-ri-	16f#\	-ri-	16a\	-ri-	8ff#\J	8a\J
.	.	.	.	16D\	-a	16d\	-a	16f#\	-a	16a\	-a	.	.
!	!	!LO:TX:a:t=P:problem=mixed beam	!	!	!	!	!	!	!	!	!	!	!
8D\L	4	8d/L	4b\	2D\	tu-	(4d\	tu-	2g\	tu-	4b\	tu-	4dd\	2gT\
8D\	.	8dd\J	.	.	.	.	.	.	.	.	.	.	.
.	.	.	(16qqee/LL	.	.	.	.	.	.	.	.	.	.
.	.	8qqdd/	16qqff#/JJ)	.	.	.	.	.	.	.	.	.	.
8D\	7 4 2	4cc#\	4ggT\	.	.	4e\)	.	.	.	4cc#t\	.	4ee\	.
8D\J	.	.	.	.	.	.	.	.	.	.	.	.	.
=11	=11	=11	=11	=11	=11	=11	=11	=11	=11	=11	=11	=11	=11
!	!	!	!	!	!	!	!	!	!	!	!	!LO:TX:a:t=P:problem=takt zapisany repetycją	!
8D\L	8 3	8dd\L	8ff#\L	4D\	-a	4A\	-a	4f#\	-a	4dd\	-a	8dd\Lyy	8f#\L
8D\	.	16ff#\L	16aa\L	.	.	.	.	.	.	.	.	16ff#\Lyy	16a\L
.	.	16dd\JJ	16ff#\JJ	.	.	.	.	.	.	.	.	16dd\JJyy	16g\JJ
8D\	.	8a/L	8dd\L	8D\	glo-	8f#\	glo-	8f#\	glo-	8dd\	glo-	8dd\Lyy	8f#\L
8D\J	.	8f#/J	8a\J	16D\	-ri-	16d\	-ri-	16f#\	-ri-	16a\	-ri-	8ff#\Jyy	8a\J
.	.	.	.	16D\	-a	16d\	-a	16f#\	-a	16a\	-a	.	.
!	!	!	!	!	!	!	!	!LO:LB:g=original	!	!	!	!	!
8D\L	4	8d/L	4b\	2D\	tu-	(4d\	tu-	2g\	tu-	4b\	tu-	4dd\yy	4g\
8D\	.	8d/	.	.	.	.	.	.	.	.	.	.	.
!	!	!	!	!	!	!	!	!	!	!LO:LB:g=original	!	!	!
8D\	7 2	8g/	4cc#t\	.	.	4e\)	.	.	.	4cc#t\	.	4ee\yy	4e\
8D\J	.	8g/J	.	.	.	.	.	.	.	.	.	.	.
!	!	!LO:LB:g=original	!LO:LB:g=original	!	!	!	!	!	!	!	!	!	!
=12	=12	=12	=12	=12	=12	=12	=12	=12	=12	=12	=12	=12	=12
8D\L	8	16f#/LL	16dd\LL	8D\	-a	8A\	-a	8f#\	-a	8dd\	-a	8f#/L	8d\L
.	.	16f#/	16dd\	.	.	.	.	.	.	.	.	.	.
!	!	!	!	!	!	!LO:LB:g=original	!	!	!	!	!	!	!
8D\	.	16a/	16ff#\	8D\	ple-	8A\	Ple-	8f#\	Ple-	8dd\	Ple-	16f#/L	16d\L
.	.	16a/JJ	16ff#\JJ	.	.	.	.	.	.	.	.	16f#/JJ	16d\JJ
8D\	.	16ccn/LL	16aa\LL	8D\	-ni	8A\	-ni	8f#\	-ni	8dd\	-ni	8f#/L	8d\L
.	.	16cc/	16aa\	.	.	.	.	.	.	.	.	.	.
8D\J	.	16a/	16ccn\	8D\	ſunt	8A\	sunt	8f#\	ſunt	8dd\	ſ(unt)	8f#/J	8d\J
.	.	16a/JJ	16cc\JJ	.	.	.	.	.	.	.	.	.	.
!	!	!	!	!LO:LB:g=original	!	!	!	!	!	!	!	!	!
8G\L	.	16g/LL	16b\LL	4G\	Cae-	4B\	cae-	4g\	Cae-	4dd\	Cae-	4d/	4d\
.	.	16g/	16b\	.	.	.	.	.	.	.	.	.	.
8G\	.	16b/	16dd\	.	.	.	.	.	.	.	.	.	.
.	.	16b/JJ	16dd\JJ	.	.	.	.	.	.	.	.	.	.
8G\	.	16dd\LL	16gg\LL	4G\	-li	4B\	-li	4g\	-li	4dd\	-li	4d/	4d\
.	.	16dd\	16gg\	.	.	.	.	.	.	.	.	.	.
8G\J	.	16gg\	16bb\	.	.	.	.	.	.	.	.	.	.
.	.	16gg\JJ	16bb\JJ	.	.	.	.	.	.	.	.	.	.
=13	=13	=13	=13	=13	=13	=13	=13	=13	=13	=13	=13	=13	=13
8E\L	#	16g#X/LL	16ee\LL	4E\	Cae-	4B\	cae-	4g#X\	Cae-	4ee\	Cae-	8r	8r
.	.	16g#/	16ee\	.	.	.	.	.	.	.	.	.	.
8E\	.	16b/	16gg#X\	.	.	.	.	.	.	.	.	16ee\LL	16e\LL
.	.	16b/JJ	16gg#\JJ	.	.	.	.	.	.	.	.	16ee\JJ	16e\JJ
8E\	.	16dd/LL	16bb\LL	8E\	-li	8B\	-li	8g#\	-li	8ee\	-li	8ee\L	8e\L
.	.	16dd/	16bb\	.	.	.	.	.	.	.	.	.	.
8E\J	.	16b/	16dd\	8E\	et	8B\	et	8g#\	et	8ee\	et	8ee\J	8e\J
.	.	16b/JJ	16dd\JJ	.	.	.	.	.	.	.	.	.	.
!LO:LB:g=original	!	!	!	!	!	!	!	!	!	!	!	!	!
8A\L	.	16a/LL	16cc#X\LL	4A\	ter-	4c#\	ter-	4a\	ter-	4ee\	ter-	4ee\	4e\|
.	.	16a/	16cc#\	.	.	.	.	.	.	.	.	.	.
8A\	.	16cc#X/	16ee\	.	.	.	.	.	.	.	.	.	.
.	.	16cc#/JJ	16ee\JJ	.	.	.	.	.	.	.	.	.	.
8A\	.	16ee\LL	16aa\LL	4A\	-ra	4c#\	-ra	4a\	-ra	4ee\	-ra	4a/	4e\|
.	.	16ee\	16aa\	.	.	.	.	.	.	.	.	.	.
8A\J	.	16aa\	16ccc#\	.	.	.	.	.	.	.	.	.	.
.	.	16aa\JJ	16ccc#\JJ	.	.	.	.	.	.	.	.	.	.
=14	=14	=14	=14	=14	=14	=14	=14	=14	=14	=14	=14	=14	=14
8F#\L	6	16ff#\LL	16ddd\LL	8.F#\	glo-	8.d\	glo-	8.a\	glo-	8.dd\	glo-	4dd\	4f#\
.	.	16aa\	16aa\	.	.	.	.	.	.	.	.	.	.
8F#\	.	16ff#\	16ff#\	.	.	.	.	.	.	.	.	.	.
.	.	16dd\JJ	16dd\JJ	16F#\	-ri-	16d\	-ri-	16a\	-ri-	16dd\	-ri-	.	.
!	!	!LO:TX:a:t=P:problem=mixed beam	!LO:TX:a:t=P:problem=mixed beam	!	!	!	!	!	!	!	!	!	!
8F#\	.	16a/LL	16a/LL	4F#\	-a	4d\	-a	4a\	-a	4dd\	-a	8r	8r
.	.	16f#/	16f#/	.	.	.	.	.	.	.	.	.	.
8F#\J	.	16d/	16d/	.	.	.	.	.	.	.	.	8ff#\	8a\
.	.	16dd\JJ	16aan\JJ	.	.	.	.	.	.	.	.	.	.
8G\L	3	8dd\L	4bb\	4G\	tu-	4d\	tu-	4b\	tu-	4dd\	tu-	4dd/	4g\
8G\	.	8dd\	.	.	.	.	.	.	.	.	.	.	.
8G\	4 2	8ee\	4cc#X\	4G\	-a	4e\	-a	4a\	-a	4cc#\	-a	4a/	4eT\
8G\J	.	8a\J	.	.	.	.	.	.	.	.	.	.	.
=15	=15	=15	=15	=15	=15	=15	=15	=15	=15	=15	=15	=15	=15
!LO:TX:a:t=P:problem=mixed beam	!	!	!	!	!	!	!	!	!	!	!	!	!
8F#\L	6	16dd\LL	(16dd\LL	8.F#\	glo-	8.d\	glo-	8.a\	glo-	8.dd\	glo-	4dd\	8d\L
.	.	16a\	16a\)	.	.	.	.	.	.	.	.	.	.
8G\	.	16gg\	(16gg\	.	.	.	.	.	.	.	.	.	8b\J
.	.	16ee\JJ	16ee\JJ)	16G\	-ri-	16B\	-ri-	16g\	-ri-	16dd\	-ri-	.	.
.	.	8qqdd/	8qqdd/	.	.	.	.	.	.	8qqdd/	.	.	8qqf#/
8A\	4	4ee\	4ee\	4A\	-a	4A\	-a	4e\	-a	4cc#\	-a	4a/	4e\
8AA/J	3	.	.	.	.	.	.	.	.	.	.	.	.
!	!	!LO:LB:g=original	!	!	!	!	!	!	!	!	!	!	!
*	*	*	*	*	*	*	*	*	*	*	*ij	*	*
8D\L	.	16ddd\LL	16ddd\LL	4D\	glo-	4A\	glo-	4f#\	glo-	4dd\	glo-	8f#/L	8d\L
.	.	16aa\	16aa\	.	.	.	.	.	.	.	.	.	.
8D\	.	16ff#\	16ff#\	.	.	.	.	.	.	.	.	16f#/L	16d\L
.	.	16dd\JJ	16dd\JJ	.	.	.	.	.	.	.	.	16f#/JJ	16d\JJ
!	!	!	!LO:LB:g=original	!	!	!	!	!	!	!	!	!	!
!	!	!LO:TX:a:t=P:problem=mixed beam	!LO:TX:a:t=P:problem=mixed beam	!	!	!	!	!	!	!	!	!LO:TX:a:t=P:problem=mixed beam	!
8F#\	.	16a/LL	16a/LL	8F#\	-ri-	8A\	-ri-	8a\	-ri-	8dd\	-ri-	8d/L	8d\L
.	.	16f#/	16f#/	.	.	.	.	.	.	.	.	.	.
8F#\J	.	16d/	16d/	8F#\	-a	8d\	-a	8a\	-a	8dd\	-a	8ff#\J	8a\J
*	*	*	*	*	*	*	*	*	*	*	*Xij	*	*
.	.	16cccn\JJ	16cccn\JJ	.	.	.	.	.	.	.	.	.	.
=16	=16	=16	=16	=16	=16	=16	=16	=16	=16	=16	=16	=16	=16
8G\L	3	4bb\	4bb\	4G\	tu-	4d\	tu-	4b\	glo-	4dd\	glo-	4ee\	4g\
8G\	.	.	.	.	.	.	.	.	.	.	.	.	.
.	.	8qqdd/	8qqdd/	.	.	.	.	.	.	.	.	.	.
!	!	!	!	!	!	!	!	!	!	!LO:LB:g=original	!	!	!
8G\	4	4cc#X\	4cc#X\	[8G\	-a	4e\	-a	8a\	-ri-	8cc#\	-ri-	4a/	4e\
!	!	!	!	!	!	!	!	!LO:LB:g=original	!	!	!	!	!
8G\J	.	.	.	8G\]	.	.	.	8a\L	-a	8ee\	-a	.	.
!	!	!	!	!	!	!	!	!	!	!	!	!	!LO:LB:g=original
!LO:TX:a:t=P:problem=mixed beam	!	!	!	!	!	!	!	!LO:N:vis=8	!	!	!	!	!
8F#\L	6	(16dd\LL	(16dd\LL	8F#\	glo-	8f#\	glo-	4b\J	.	4dd\	tu-	4dd\	8f#\L
.	.	16a\)	16a\	.	.	.	.	.	.	.	.	.	.
8G\	6 3	(16gg\	16gg\)	16G\	-ri-	16e\	-ri-	.	.	.	.	.	8e\J
.	.	16ee\JJ)	16ee\JJ	16G\	-a	16e\	-a	.	.	.	.	.	.
.	.	8qqdd/	8qqdd/	.	.	.	.	.	.	8qqdd/	.	.	.
8A\	.	4ee\	4ee\	4A\	tu-	4e\	tu-	4a\	tu-	4cc#\	.	4a/	4eT\
8AA/J	4	.	.	.	.	.	.	.	.	.	.	.	.
.	3	.	.	.	.	.	.	.	.	.	.	.	.
=17	=17	=17	=17	=17	=17	=17	=17	=17	=17	=17	=17	=17	=17
*	*	*	*^	*	*	*	*	*	*	*	*	*	*
8D\L	.	8dd\	8ryy	8dd\L	4D/	-a	4f#\	-a	4a\	-a	4dd;\	-a	8f#/L	8d\L
8D\	.	8ff#L 8a 8d/	8ff#/L	8a\	.	.	.	.	.	.	.	.	16f#/L	16A\L
.	.	.	.	.	.	.	.	.	.	.	.	.	16f#/JJ	16A\JJ
8D\	.	8ff# 8a 8d/	8ff#/	8a\	4r	.	4r	.	4r	.	4r	.	8f#/L	8A\L
8D\J	.	8ff#J 8a 8d/	8ff#/J	8a\J	.	.	.	.	.	.	.	.	8f#/J	8A\J
4D\	.	4ff# 4a 4d/	4ff#/	4a 4d\	2r	.	2r	.	2r	.	2r	.	4d/	4F#/
4r	.	4r	4r	4ryy	.	.	.	.	.	.	.	.	4r	4r
*	*	*	*v	*v	*	*	*	*	*	*	*	*	*	*
!LO:LB:g=original	!	!LO:LB:g=original	!LO:LB:g=original	!LO:LB:g=original	!	!LO:LB:g=original	!	!	!	!	!	!LO:LB:g=original	!
=18||	=18||	=18||	=18||	=18||	=18||	=18||	=18||	=18||	=18||	=18||	=18||	=18||	=18||
*	*	*	*	*	*	*	*	*	*	*clef C1	*	*	*
*k[f#c#]	*	*k[f#c#]	*k[f#c#]	*k[f#c#]	*	*k[f#c#]	*	*k[f#c#]	*	*k[f#c#]	*	*k[f#c#]	*k[f#c#]
*M4/4	*	*M4/4	*M4/4	*M4/4	*	*M4/4	*	*M4/4	*	*M4/4	*	*M4/4	*M4/4
*met(c)	*	*met(c|)	*met(c)	*met(c)	*	*met(c)	*	*met(c)	*	*met(c)	*	*met(c)	*met(c)
!LO:TX:b:t=Oſanna	!	!LO:TX:a:t=8	!LO:TX:a:t=8	!	!	!	!	!	!	!	!	!LO:TX:b:t=Oſanna	!LO:TX:b:t=Osanna
!LO:TX:a:t=All(egr)o Solo	!	!LO:TX:a:t=All(egr)o	!LO:TX:a:t=Allo	!LO:TX:a:t=Allo n(on) molto	!	!	!	!	!	!LO:TX:a:t=allo Sol.	!	!LO:TX:a:t=All(egr)o	!LO:TX:a:t=All(egr)o
!	!	!LO:TX:b:t=Osanna	!LO:TX:b:t=oſanna	!	!	!LO:TX:a:t=P:problem=krzyżyki c# F#	!	!	!	!LO:TX:a:t=P:problem=krzyżyki cc# f#, "O"przed kluczem	!	!	!
8r	.	00r	00r	00r	.	00r	.	00r	.	(4dd\	O-	00r	00r
8D\L	.	.	.	.	.	.	.	.	.	.	.	.	.
8E\	.	.	.	.	.	.	.	.	.	4cc#\)	-ſan-	.	.
8AA\J	.	.	.	.	.	.	.	.	.	.	.	.	.
!LO:TX:a:t=P:problem=mixed beam	!	!	!	!	!	!	!	!	!	!	!	!	!
8F#\L	6_	.	.	.	.	.	.	.	.	4dd\	-na	.	.
8AA/	.	.	.	.	.	.	.	.	.	.	.	.	.
8C#/	6	.	.	.	.	.	.	.	.	8r	.	.	.
8AA/J	.	.	.	.	.	.	.	.	.	8ee\	o-	.	.
=19	=19	=19	=19	=19	=19	=19	=19	=19	=19	=19	=19	=19	=19
8D/L	3	.	.	.	.	.	.	.	.	4ff#\	-ſan-	.	.
8AA/	.	.	.	.	.	.	.	.	.	.	.	.	.
8E/	6	.	.	.	.	.	.	.	.	4gg\	.	.	.
8AA/J	.	.	.	.	.	.	.	.	.	.	.	.	.
4F#\	6	.	.	.	.	.	.	.	.	8aa\L	.	.	.
.	.	.	.	.	.	.	.	.	.	16gg\L	.	.	.
.	.	.	.	.	.	.	.	.	.	16ff#\JJ	.	.	.
4G\	6	.	.	.	.	.	.	.	.	8ee\L	.	.	.
.	5	.	.	.	.	.	.	.	.	8dd\J	.	.	.
=20	=20	=20	=20	=20	=20	=20	=20	=20	=20	=20	=20	=20	=20
!LO:TX:a:t=P:problem=mixed beam	!	!	!	!	!	!	!	!	!	!	!	!	!
8A\L	7	.	.	.	.	.	.	.	.	8cc#\	-na	.	.
8B\	3	.	.	.	.	.	.	.	.	8dd\	in	.	.
!	!	!	!	!	!	!	!	!	!	!LO:LB:g=original	!	!	!
8C#/	5	.	.	.	.	.	.	.	.	8gg\	ex-	.	.
8D/J	.	.	.	.	.	.	.	.	.	8ff#\	-cel-	.	.
8A\L	.	.	.	.	.	.	.	.	.	8ff#\	.	.	.
8A\	.	.	.	.	.	.	.	.	.	8ee\	-siſ	.	.
8c#\	.	.	.	.	.	.	.	.	.	8r	.	.	.
8A\J	.	.	.	.	.	.	.	.	.	8ee\	o-	.	.
=21	=21	=21	=21	=21	=21	=21	=21	=21	=21	=21	=21	=21	=21
*	*	*	*	*	*	*	*	*	*	*Xtuplet	*	*	*
!	!	!	!	!	!	!	!	!	!	!LO:TUP:a:problem=klamra łukowa	!	!	!
8d\L	.	.	.	.	.	.	.	.	.	24ff#\LL	-ſan-	.	.
.	.	.	.	.	.	.	.	.	.	24ee\	.	.	.
.	.	.	.	.	.	.	.	.	.	24dd\JJ	.	.	.
8A\	.	.	.	.	.	.	.	.	.	4ee\	.	.	.
8c#\	.	.	.	.	.	.	.	.	.	.	.	.	.
8A\J	.	.	.	.	.	.	.	.	.	8cc#\	.	.	.
!	!	!	!	!	!	!	!	!	!	!LO:TUP:a:problem=klamra łukowa	!	!	!
8G#X\L	5	.	.	.	.	.	.	.	.	24dd\LL	.	.	.
.	.	.	.	.	.	.	.	.	.	24cc#\	.	.	.
.	.	.	.	.	.	.	.	.	.	24b\JJ	.	.	.
8A\J	.	.	.	.	.	.	.	.	.	4cc#\	-na	.	.
!LO:TX:a:t=P:problem=mixed beam	!	!	!	!	!	!	!	!	!	!	!	!	!
16AA/LL	.	.	.	.	.	.	.	.	.	.	.	.	.
16A\	.	.	.	.	.	.	.	.	.	.	.	.	.
16c#\	.	.	.	.	.	.	.	.	.	8a\	o-	.	.
16A\JJ	.	.	.	.	.	.	.	.	.	.	.	.	.
=22	=22	=22	=22	=22	=22	=22	=22	=22	=22	=22	=22	=22	=22
8G#X\L	6_	00r	00r	00r	.	00r	.	00r	.	(4b\	-ſan-	00r	00r
8E\	.	.	.	.	.	.	.	.	.	.	.	.	.
8A\	#_	.	.	.	.	.	.	.	.	4cc#t\)	.	.	.
8E\J	.	.	.	.	.	.	.	.	.	.	.	.	.
8B\L	6\_	.	.	.	.	.	.	.	.	4dd\	-na	.	.
8E\	.	.	.	.	.	.	.	.	.	.	.	.	.
8G#X\	.	.	.	.	.	.	.	.	.	8r	.	.	.
8E\J	X	.	.	.	.	.	.	.	.	8b\	o-	.	.
!LO:LB:g=original	!	!	!	!	!	!	!	!	!	!	!	!	!
=23	=23	=23	=23	=23	=23	=23	=23	=23	=23	=23	=23	=23	=23
8A\L	.	.	.	.	.	.	.	.	.	(4cc#\	-ſan-	.	.
8E\	.	.	.	.	.	.	.	.	.	.	.	.	.
8B\	.	.	.	.	.	.	.	.	.	4ddT\)	.	.	.
8E\J	.	.	.	.	.	.	.	.	.	.	.	.	.
8c#\L	.	.	.	.	.	.	.	.	.	4ee\	-na	.	.
8A\	.	.	.	.	.	.	.	.	.	.	.	.	.
8E\	.	.	.	.	.	.	.	.	.	8r	.	.	.
8C#\J	.	.	.	.	.	.	.	.	.	8ee\	o-	.	.
=24	=24	=24	=24	=24	=24	=24	=24	=24	=24	=24	=24	=24	=24
!LO:TX:a:t=P:problem=mixed beam	!	!	!	!	!	!	!	!	!	!	!	!	!
8AA/L	.	.	.	.	.	.	.	.	.	8ee\	-ſan-	.	.
.	.	.	.	.	.	.	.	.	.	8qqb/	.	.	.
8A\	.	.	.	.	.	.	.	.	.	16a\LL	-na	.	.
.	.	.	.	.	.	.	.	.	.	16b\JJ	.	.	.
!	!	!	!	!	!	!	!	!	!	!LO:LB:g=original	!	!	!
8c#\	.	.	.	.	.	.	.	.	.	8ee\	in	.	.
8A\J	.	.	.	.	.	.	.	.	.	8aa\	ex-	.	.
8d\L	.	.	.	.	.	.	.	.	.	8ff#\	-cel-	.	.
8G#X\	6	.	.	.	.	.	.	.	.	4ee\	.	.	.
8A\	5	.	.	.	.	.	.	.	.	.	.	.	.
8D\J	6	.	.	.	.	.	.	.	.	8dd\	.	.	.
=25	=25	=25	=25	=25	=25	=25	=25	=25	=25	=25	=25	=25	=25
!LO:TX:a:t=P:problem=mixed beam	!	!	!	!	!	!	!	!	!	!	!	!	!
8E\L	6 4	.	.	.	.	.	.	.	.	4cc#\	.	.	.
8E\	.	.	.	.	.	.	.	.	.	.	.	.	.
8EE/	5 #	.	.	.	.	.	.	.	.	4bT\	.	.	.
8EE/J	.	.	.	.	.	.	.	.	.	.	.	.	.
!LO:TX:a:t=P:problem=mixed beam	!	!	!	!	!	!	!	!	!	!	!	!	!
8AA/L	.	.	.	.	.	.	.	.	.	4a\	-siſ	.	.
8A\J	.	.	.	.	.	.	.	.	.	.	.	.	.
16A\LL	.	.	.	.	.	.	.	.	.	4r	.	.	.
16Gn\	.	.	.	.	.	.	.	.	.	.	.	.	.
16F#\	.	.	.	.	.	.	.	.	.	.	.	.	.
16E\JJ	.	.	.	.	.	.	.	.	.	.	.	.	.
=26	=26	=26	=26	=26	=26	=26	=26	=26	=26	=26	=26	=26	=26
!LO:TX:a:t=Tutti	!	!	!	!	!	!LO:TX:b:t=P:problem="O" przed kluczem	!	!	!	!	!	!	!
4D\	.	8r	4dd\	4D\	Oſ-	4A\	O-	4f#\	O-	4dd\	o-	4ff#\	4a\
.	.	8f#/L	.	.	.	.	.	.	.	.	.	.	.
4E\	.	8g/	4cc#\	4E\	-san-	4A\	-ſa-	4g\	-ſan-	4cc#\	-ſan-	4ee\	4g\
.	.	8A/J	.	.	.	.	.	.	.	.	.	.	.
8F#\L	.	8a/L	8dd\L	8F#\	-na	4A\	-n(n)a	4a\	-(n)a	4dd\	-na	4dd\	4f#\
8D\	.	8f#/	8a\	8D/	oſ-	.	.	.	.	.	.	.	.
8C#\	.	8a/	8ee\	8C#/	-san-	8r	.	4a\	O-	8r	.	8r	8r
8AA\J	.	8cc#/J	8a\J	8AA/	-na	8c#\	O-	.	.	8ee\	o-	8a/	8e\
=27	=27	=27	=27	=27	=27	=27	=27	=27	=27	=27	=27	=27	=27
!	!	!	!	!	!	!LO:N:vis=4	!	!	!	!	!	!	!
8D\L	.	4dd\	4ff#\	4D\	in	4d\	-ſan-	4a\	-ſan-	4ff#\	-ſan-	4f#/	4d\
8AA\	.	.	.	.	.	.	.	.	.	.	.	.	.
8E\	.	4cc#\	4gg\	4E\	ex-	8c#\	.	8a\	-(n)a	4gg\	.	4r	4r
8AA\J	.	.	.	.	.	8c#\	.	8a\	O-	.	.	.	.
4F#\	.	4dd\	8aa\L	(4F#\	-cel-	(4d\	.	4a\	-ſan-	8aa\L	.	2rg	2rg
.	.	.	16gg\L	.	.	.	.	.	.	16gg\L	.	.	.
.	.	.	16ff#\JJ	.	.	.	.	.	.	16ff#\JJ	.	.	.
4G\	.	4b\	8ee\L	4G\)	.	4B\)	.	4b\	-na	8ee\L	.	.	.
.	.	.	8dd\J	.	.	.	.	.	.	8dd\J	.	.	.
=28	=28	=28	=28	=28	=28	=28	=28	=28	=28	=28	=28	=28	=28
!LO:TX:a:t=P:problem=mixed beam	!	!LO:TX:a:t=P:problem=mixed beam	!	!	!	!	!	!	!	!	!	!	!
8A\L	7	8a/L	8cc#\L	8A\	.	8A\	-na	8g\	in	8cc#\	-na	8r	8r
8B\	5	8ff#\	8dd\	8B\	-sis	8d\	O-	8f#\	ex-	8dd\	in	8dd\L	8d\L
8C#/	6	8ee\	8gg\	8C#/	in	8e\	-ſa-	[8a\	-cel-	8gg\	ex-	8ee\	8g\
8D/J	.	8dd\J	8ff#\J	8D/	ex-	8d\	.	8a\]	.	8ff#\	-cel-	8dd\J	8f#\J
!	!	!	!	!	!	!	!	!	!	!LO:LB:g=original	!	!	!
!LO:TX:a:t=P:problem=mixed beam	!	!	!	!	!	!	!	!	!	!	!	!	!
.	.	8qqee/	8qqgg/	.	.	8qqe/	.	.	.	8qqgg/	.	.	8qqg/
8A\L	6 4	8dd\L	8ff#\L	8A\	-cel-	8d\	.	[8a\	-siſ	8ff#\	.	8dd/L	8f#\L
8AA/	5 3	8cc#\	8ee\J	8AA/	-sis	8c#\	-na	8a\]	.	8ee\	-siſ	16a/L	16e\L
.	.	.	.	.	.	.	.	.	.	.	.	16a/JJ	16e\JJ
!	!	!	!	!	!	!	!	!LO:LB:g=original	!	!	!	!	!
8AA/	.	8cc#\	8r	8r	.	8r	.	8r	.	8r	.	8a/L	8e\L
8A\J	.	8cc#\J	8ee\	8A\	Oſ-	8A/	O-	8e\	O-	8cc#\	o-	8a/J	8e\J
!LO:PB:g=original	!	!	!	!	!	!	!	!	!	!	!	!	!
=29	=29	=29	=29	=29	=29	=29	=29	=29	=29	=29	=29	=29	=29
8D\L	.	8ff#\	8ff#\	8D\	-san-	8A\	-sa-	8f#\	-ſan-	8dd\	-ſan-	8dd\L	8f#\L
8D\	.	4dd\	4dd\	8D\	-na	8A\	-n(n)a	8f#\	-na	8dd\	-na	8dd\	8d\
8F#\	6	.	.	8F#\	in	8A\	in	8f#\	in	8dd\	in	8dd\	8d\
8F#\J	.	8a\	8a/	8F#\	ex-	8d\	ex-	8a\	ex-	8dd\	ex-	8dd\J	8d\J
8G\L	3_	8b/L	8b/L	8G\L	-cel-	4d\	-cel-	8b\L	-cel-	4dd\	-cel-	4dd\	4d\
8B\	.	16d/L	16d/L	8B\J	.	.	.	8g\J	.	.	.	.	.
.	X	16g/JJ	16g/JJ	.	.	.	.	.	.	.	.	.	.
8G\	.	8b\L	8b/L	8G\	-sis	8d\	-sis	8b\	-siſ	8dd\	-siſ	4r	4r
8F#\J	6	8dd\J	8dd/J	8F#\	Oſ-	8d\	o-	8a\	o-	8dd\	o-	.	.
!	!	!	!	!LO:LB:g=original	!	!	!	!	!	!	!	!	!
=30	=30	=30	=30	=30	=30	=30	=30	=30	=30	=30	=30	=30	=30
8E\L	3	8gg\	8gg\	8E\	-san-	8B\	-ſan(n)-	8g\	-ſan-	8ee\	-ſan-	8r	8r
8E\	.	4ee\	4ee\	8E\	-na	8B\	-a,	8g\	-(n)a	8ee\	-na	8ee\L	8e\L
!	!	!	!	!	!	!LO:LB:g=original	!	!	!	!	!	!	!
8G\	6	.	.	8G\	in	8B\	in	8b\	in	8ee\	in	8ee\	8e\
8G\J	.	8b\	8b\	8G\	ex-	8e\	ex-	8b\	ex-	8ee\	ex-	8ee\J	8e\J
!	!	!LO:LB:g=original	!	!	!	!	!	!	!	!	!	!	!
8A\L	.	8cc#/L	8cc#/L	8A\L	-cel-	4e\	-cel-	4cc#\	-cel-	4ee\	-cel-	4ee\	4e\
8c#\	.	16e/L	16e/L	8c#\J	.	.	.	.	.	.	.	.	.
.	.	16a/JJ	16a/JJ	.	.	.	.	.	.	.	.	.	.
8A\	6	8.cc#\L	8cc#\L	8A\	-sis	8e\	-siſ	8cc#\	-siſ	8ee\	-siſ	4r	4r
8G\J	.	.	8ee\J	8G\	oſ-	8e\	O-	8b\	O-	8ee\	o-	.	.
.	.	16ee\Jk	.	.	.	.	.	.	.	.	.	.	.
!	!	!	!LO:LB:g=original	!	!	!	!	!	!	!	!	!	!
=31	=31	=31	=31	=31	=31	=31	=31	=31	=31	=31	=31	=31	=31
8F#\L	.	8aa\	8aa\	8F#\	-san-	8c#\	-ſan-	8a\	-ſan-	8ff#\	-ſan-	8r	8r
8F#\	.	4ff#\	4ff#\	8F#\	-na	8c#\	-(n)a	8a\	-na	8ff#\	-na	8ff#\L	8f#\L
8A\	6	.	.	8A\	in	8c#\	in	8a\	in	8ff#\	in	8ff#\	8f#\
8A\J	.	8cc#\	8cc#\	8A\	ex-	8c#\	ex-	8f#\	ex-	8ff#\	ex-	8ff#\J	8f#\J
!	!	!	!	!	!	!	!	!LO:TX:a:t=P:problem=zbędna kreska taktowa	!	!	!	!	!
8B\L	3_	8dd/L	8dd/L	8B\L	-cel-	4d\	-cel-	4b\	-cel-	4ff#\	-cel-	4dd\	4f#\
8d\	.	16f#/L	16f#/L	8d\J	.	.	.	.	.	.	.	.	.
.	X	16b/JJ	16b/JJ	.	.	.	.	.	.	.	.	.	.
8B\	.	8dd\L	8dd\L	8B\	-sis	8d\	-sis	8b\	-siſ	8ff#\	-siſ	4r	4r
!	!	!	!	!	!	!	!	!	!	!LO:LB:g=original	!	!	!
8A\J	.	8ff#\J	8ff#\J	8A\	oſ-	8d\	O-	8b\	o-	8dd\	o-	.	.
=32	=32	=32	=32	=32	=32	=32	=32	=32	=32	=32	=32	=32	=32
8G\L	3	(16bb\KL	16bb\KL	8G\	-san-	4g\	-ſan-	4b\	-ſan-	4dd\	-ſan-	4r	4r
.	.	8.gg\J)	8.gg\J	.	.	.	.	.	.	.	.	.	.
8G\	.	.	.	8G\	-na	.	.	.	.	.	.	.	.
!	!	!	!	!	!	!	!	!LO:LB:g=original	!	!	!	!	!
8G\	6	(16ee\KL	16ee\KL	8G\	in	4e\	-(n)a	4b\	-na	4ee\	-na	8r	8r
.	.	.	8qqee/	.	.	.	.	.	.	.	.	.	.
.	.	8.dd\J)	8.dd\J	.	.	.	.	.	.	.	.	.	.
8G\J	.	.	.	8G\	ex-	.	.	.	.	.	.	8a/	8e\L
8G\L	4_ 2_	(16cc#\LL	16cc#\LL	4G\	-cel-	4e\	in	4.a\	in	4cc#\	in	8a\L	8e\J
.	.	16a\)	16a\	.	.	.	.	.	.	.	.	.	.
8G\	.	(16ee\	16ee\	.	.	.	.	.	.	.	.	8ee\	4a\
.	.	16cc#\JJ)	16cc#\JJ	.	.	.	.	.	.	.	.	.	.
8F#\	.	8dd\L	8ee\L	8F#\L	.	8d\L	ex-	.	.	4dd\	ex-	8ff#\	.
8G\J	6	8gg\J	8gg\J	8G\J	.	8g\J	.	8b\	ex-	.	.	8ee\J	8g\
!	!	!	!	!	!	!	!	!	!	!	!	!	!LO:LB:g=original
=33	=33	=33	=33	=33	=33	=33	=33	=33	=33	=33	=33	=33	=33
!LO:TX:a:t=P:problem=mixed beam	!	!	!	!	!	!	!	!	!	!	!	!	!
8A\L	6 4	4ff#\	4ff#\	4A\	.	4f#\	-cel-	2a\	-cel-	(4dd\	-cel-	4dd\	4f#\
8A\	.	.	.	.	.	.	.	.	.	.	.	.	.
8AA/	5 3	4ee\	4ee\	4AA/	.	4e\	.	.	.	4cc#\)	.	4a\	4e\
8AA/J	.	.	.	.	.	.	.	.	.	.	.	.	.
8D\L	.	8dd\L	8dd\L	4D/	-sis	4f#\	-sis	4a\	-siſ	4dd\	-siſ	8f#/L	8d\L
8D\	.	8ff#\J	8ff#\J	.	.	.	.	.	.	.	.	8f#/	8d\
8F#\	6	8r	8r	4F#\	oſ-	8r	.	8r	.	8r	.	8a/	8d\
8F#\J	.	8a/	8a/	.	.	8d\	O-	8a\	o	8dd\	o-	8a/J	8d\J
!	!	!	!	!LO:LB:g=original	!	!	!	!	!	!	!	!	!
=34	=34	=34	=34	=34	=34	=34	=34	=34	=34	=34	=34	=34	=34
8G\L	3_	16b/LL	16b/LL	8G\	-ſan-	8d\	-ſan-	8b\	ſan-	8dd\	-ſan-	4d/	4d\
.	.	16b/	16b/	.	.	.	.	.	.	.	.	.	.
8B\	.	16d/	16d/	8B\	-na	8G/	-(n)a	8b\	-na	8dd\	-na	.	.
.	.	16d/JJ	16d/JJ	.	.	.	.	.	.	.	.	.	.
8G\	.	16g/LL	16g/LL	8G\	in	8G/	in	8b\	in	8dd\	in	4r	4r
.	.	16g/	16g/	.	.	.	.	.	.	.	.	.	.
8F#\J	#	16b/	16b/	8F#\	ex-	8B\	ex-	8b\	ex-	8dd\	ex-	.	.
.	.	16b/JJ	16b/JJ	.	.	.	.	.	.	.	.	.	.
8E\L	.	8ee\L	8ee\L	4E\	-cel-	4B\	-cel-	4b\	-cel-	4ee\	-cel-	8r	8r
8E\	.	8gg\J	8gg\J	.	.	.	.	.	.	.	.	8ee\L	8e\L
!	!	!LO:LB:g=original	!	!	!	!	!	!	!	!	!	!	!
8G\	6	8r	8r	8G\	-sis	8B\	-siſ	8b\	-siſ	8ee\	-siſ	8ee\	8e\
8G\J	.	8b\	8b\	8G\	oſ-	8B\	O-	8b\	o-	8ee\	o-	8ee\J	8e\J
=35	=35	=35	=35	=35	=35	=35	=35	=35	=35	=35	=35	=35	=35
8A\L	#_	16cc#/LL	16cc#/LL	8A\	-san-	8e\	-ſan-	8cc#\	-ſan-	8ee\	-ſan-	4ee\	4e\
.	.	16cc#/	16cc#/	.	.	.	.	.	.	.	.	.	.
8c#\	.	16e/	16e/	8c#\	-na	8A\	-(n)a	8cc#\	-na	8ee\	-(n)a	.	.
.	.	16e/JJ	16e/JJ	.	.	.	.	.	.	.	.	.	.
8A\	.	16a/LL	16a/LL	8A\	in	8A\	in	8cc#\	in	8ee\	in	4r	4r
.	.	16a/	16a/	.	.	.	.	.	.	.	.	.	.
8G\J	6	16cc#/	16cc#/	8G\	ex-	8A\	ex-	8cc#\	ex-	8ee\	ex-	.	.
.	.	16cc#/JJ	16cc#/JJ	.	.	.	.	.	.	.	.	.	.
!	!	!	!	!	!	!	!	!	!	!	!	!LO:LB:g=original	!
!	!	!	!	!	!	!	!	!	!	!	!	!LO:TX:a:t=P:problem=dalsza część taktu i początek następnego niewidoczne	!
8F#\L	.	8ff#\L	8ff#\L	4F#\	-cel-	4A\	-cel-	4cc#\	-cel-	4ff#\	-cel-	8r	8r
8F#\	.	8aa\J	8aa\J	.	.	.	.	.	.	.	.	8ryy	8f#\L
8A\	.	8r	8r	8A\	-siſ	8A\	-siſ	8cc#\	-siſ	8ff#\	-siſ	4ryy	8f#\
8A\J	6	8cc#\	8cc#\	8A\	oſ-	8c#\	O-	8a\	o-	8ff#\	o-	.	8f#\J
!	!	!	!LO:PB:g=original	!	!	!LO:LB:g=original	!	!	!	!LO:LB:g=original	!	!	!
=36	=36	=36	=36	=36	=36	=36	=36	=36	=36	=36	=36	=36	=36
!	!	!	!LO:TX:a:t=P:problem=mixed beam	!	!	!	!	!	!	!	!	!	!
8B\L	3_	16dd/LL	16dd\LL	8B\	-san-	8G/	-ſan-	8f#\	-ſan-	8dd\	-ſan-	2ryy	4f#\
.	.	16dd/	16dd\	.	.	.	.	.	.	.	.	.	.
8d\	.	16f#/	16f#/	8d\	-na	8B\	-(n)a	8f#\	-(n)a	8dd\	-na	.	.
.	.	16f#/JJ	16f#/JJ	.	.	.	.	.	.	.	.	.	.
8B\	.	16b/LL	16b\LL	8B\	in	8B\	in	8f#\	in	8dd\	in	.	4r
.	.	16b/	16b\	.	.	.	.	.	.	.	.	.	.
8A\J	.	16dd/	16dd\	8A\	ex-	8B\	ex-	8f#\	ex-	8dd\	ex-	.	.
.	.	16dd/JJ	16dd\JJ	.	.	.	.	.	.	.	.	.	.
!LO:LB:g=original	!	!	!	!	!	!	!	!LO:LB:g=original	!	!	!	!	!
8G\L	3	8gg\L	8gg\L	4G\	-cel-	4B\	-cel-	4g\	-cel-	4dd\	-cel-	4ryy	4r
8G\	.	8bb\J	8bb\J	.	.	.	.	.	.	.	.	.	.
8G\	6	8r	8r	4G\	-ſis	4B\	-ſiſ	4g\	-siſ	4ee\	-siſ	8r	8r
8G\J	.	8b\	8b\	.	.	.	.	.	.	.	.	8ee\	8e\
=37	=37	=37	=37	=37	=37	=37	=37	=37	=37	=37	=37	=37	=37
!	!	!	!	!	!	!	!	!	!	!	!	!LO:TX:a:t=P:problem=mixed beam	!
8G\L	4 2	16cc#\LL	16cc#\LL	4G\	in	4.A\	in	4e\	in	4cc#\	in	8a/L	8A/
.	.	16a\	16a\	.	.	.	.	.	.	.	.	.	.
8G\	.	16ee\	16ee\	.	.	.	.	.	.	.	.	8ee\	4a\
.	.	16cc#\JJ	16cc#\JJ	.	.	.	.	.	.	.	.	.	.
8F#\	6	8dd\L	8dd\L	8F#\L	ex-	.	.	(8d\L	.	4dd\	ex-	8ff#\	.
8G\J	.	8g\J	8g\J	8G\J	.	8B\	ex-	8g\J)	.	.	.	8ee\J	8g\
!LO:TX:a:t=P:problem=mixed beam	!	!	!	!	!	!	!	!	!	!	!	!	!
8A\L	6 4	4f#/	4f#/	4A\	-cel-	2A\	-cel-	4f#\	ex-	(4dd\	-cel-	4dd\	4f#\
8A\	.	.	.	.	.	.	.	.	.	.	.	.	.
8AA/	x 3	4e/	4e/	4AA/	.	.	.	4e\	-cel-	4cc#\)	.	4a\	4e\
8AA/J	.	.	.	.	.	.	.	.	.	.	.	.	.
=38	=38	=38	=38	=38	=38	=38	=38	=38	=38	=38	=38	=38	=38
4D\	.	4d/	4d/	4D/	-sis	4A\	-ſiſ.	4f#\	-siſ.	4dd\	-siſ.	4f#/	4dT\
4r	.	4r	4r	4r	.	4r	.	4r	.	4r	.	4r	4r
2r	.	2r	2r	2r;	.	2r	.	2r	.	2r	.	2rg	2rg
==	==	==	==	==	==	==	==	==	==	==	==	==	==
*-	*-	*-	*-	*-	*-	*-	*-	*-	*-	*-	*-	*-	*-
!!!system-decoration: [g1][g2][g3]s9
!!!RDF**kern: | = vertical stroke
!!!ENC: Marta Lawrence
!!!END: 2020-11-14
!!!ENC: Berenika Jozajtis
!!!END: 2020-05-25
